local/share/icons/dracula-icons-main/scalable/apps/google-drive.svg

<?xml version="1.0" encoding="UTF-8"?>
<svg xmlns="http://www.w3.org/2000/svg" xmlns:xlink="http://www.w3.org/1999/xlink" width="64" height="64" viewBox="0 0 64 64">
<path fill-rule="nonzero" fill="rgb(30.196078%, 30.196078%, 30.196078%)" fill-opacity="1" d="M 58.183594 25.136719 C 58.117188 24.886719 58.046875 24.621094 57.972656 24.359375 C 57.832031 23.859375 57.667969 23.351562 57.488281 22.851562 C 57.121094 21.808594 56.679688 20.789062 56.164062 19.78125 C 55.949219 19.359375 55.710938 18.925781 55.460938 18.5 C 54.292969 16.515625 52.839844 14.652344 51.09375 12.910156 C 45.824219 7.636719 39.457031 5 32 5 C 24.542969 5 18.179688 7.636719 12.910156 12.910156 C 7.636719 18.179688 5 24.542969 5 32 C 5 39.457031 7.636719 45.824219 12.910156 51.09375 C 16.800781 54.988281 21.289062 57.441406 26.34375 58.453125 C 28.171875 58.820312 30.050781 59 32 59 C 39.457031 59 45.824219 56.367188 51.09375 51.09375 C 53.875 48.316406 55.921875 45.230469 57.234375 41.839844 C 58.207031 39.324219 58.78125 36.644531 58.949219 33.789062 C 58.980469 33.203125 59 32.605469 59 32 C 59 29.613281 58.730469 27.332031 58.179688 25.136719 Z M 58.183594 25.136719 "/>
<path fill-rule="evenodd" fill="rgb(17.254902%, 53.333333%, 98.039216%)" fill-opacity="1" d="M 26 37.078125 L 50 37.078125 L 44 47.230469 L 20 47.230469 "/>
<path fill-rule="evenodd" fill="rgb(98.431373%, 77.254902%, 28.627451%)" fill-opacity="1" d="M 50 37.078125 L 37.996094 16.769531 L 26 16.769531 L 37.996094 37.078125 "/>
<path fill-rule="evenodd" fill="rgb(4.313725%, 70.196078%, 43.529412%)" fill-opacity="1" d="M 20 47.230469 L 32 26.921875 L 26 16.769531 L 14 37.078125 "/>
</svg>

<svg id="App-Store" width="64" height="64" enable-background="new 0 0 1024 1024" image-rendering="optimizeSpeed" version="1.1" viewBox="0 0 64 64" xmlns="http://www.w3.org/2000/svg">
 <path d="m58.182 25.136c-0.06292-0.24883-0.13442-0.51484-0.20879-0.77797-0.14301-0.50054-0.30604-1.0067-0.48337-1.5073-0.36896-1.044-0.80943-2.0622-1.3243-3.069-0.21738-0.42331-0.45477-0.8552-0.7036-1.2813h-0.0014q-1.7505-2.9751-4.3661-5.5916c-5.2713-5.2713-11.638-7.9084-19.094-7.9084s-13.82 2.6371-19.092 7.9084c-5.2713 5.2713-7.9084 11.635-7.9084 19.092 0 7.4565 2.6371 13.823 7.9084 19.094 3.8927 3.8927 8.3804 6.3467 13.437 7.3592 1.8276 0.3661 3.704 0.54629 5.6546 0.54629 7.4565 0 13.823-2.6342 19.094-7.9055 2.7801-2.7801 4.828-5.8633 6.1408-9.2556 0.97245-2.5141 1.5445-5.1941 1.7132-8.0514 0.03433-0.58348 0.05148-1.1813 0.05148-1.7876 0-2.3882-0.26886-4.6679-0.81801-6.8644z" fill="#4d4d4d" stroke-width=".89649"/>
 <g transform="matrix(1.3846 0 0 1.3846 -11.885 -10.034)" fill-rule="evenodd">
  <path d="m27.363 34.026h17.332l-4.332 7.332h-17.336" fill="#2c88fa"/>
  <path d="m44.695 34.026-8.668-14.668h-8.664l8.664 14.668" fill="#fbc549"/>
  <path d="m23.027 41.358 8.668-14.668-4.332-7.332-8.668 14.668" fill="#0bb36f"/>
 </g>
</svg>
